!!!COM: Bohuslav (Jan) Martinů
!!!OTL: [T517_Mau-w26p16m45-52]
**kern	**kern	**dynam	**kern	**dynam	**kern	**dynam
*grp:A	*grp:A	*	*grp:B	*	*grp:A	*
*part3	*part3	*part3	*part2	*part2	*part1	*part1
*staff4	*staff3	*	*staff2	*	*staff1	*
*I"Piano	*I"Piano	*	*I"Violin 2	*	*I"Violin 1	*
*clefF4	*clefG2	*	*clefG2	*	*clefG2	*
*k[]	*k[]	*	*k[]	*	*k[]	*
*C:	*C:	*	*C:	*	*C:	*
*M4/4	*M4/4	*	*M4/4	*	*M4/4	*
*met(c)	*met(c)	*	*met(c)	*	*met(c)	*
=1	=1	=1	=1	=1	=1	=1
1ryy	8b-XL	mf	8cc#XL	mf	4gg	mf
.	8d#XJ	.	8b-XJ	.	.	.
.	8eL	.	8aL	.	8ggL	.
.	8A<J\	.	8cc#J	.	8eeJ	.
.	8b-L	.	8b-L\	.	8aaL	.
.	8d#J	.	8aJ	.	8eeJ	.
.	8eL	.	8cc#L	.	8ggL	.
.	8A<J\	.	8b-J	.	8eeJ	.
=2	=2	=2	=2	=2	=2	=2
1ryy	8b-XL	.	8aL	.	8bb-XL	.
.	8d#XJ	.	8cc#XJ	.	8eeJ	.
.	8eL	.	8b-XL\	.	8cccnL	.
.	8A<J\	.	8aJ	.	8eeJ	.
.	8b-L	.	8cc#L	.	8aaL	.
.	8d#J	.	8b-J	.	8eeJ	.
.	8eL	.	8aL	.	8bb-L	.
.	8A<J\	.	8cc#J	.	8eeJ	.
=3	=3	=3	=3	=3	=3	=3
1ryy	8b-XL	.	8b-XL\	.	8cccL	.
.	8d#XJ	<	8aJ	.	8eeJ	.
.	8eL	.	8cc#XL	<	8aaL	<
.	8A<J\	.	8b-J	.	8eeJ	.
.	8b-L	.	8aL	.	8ggL	.
.	8d#J	.	8cc#J	.	8eeJ	.
.	8eL	.	8b-L\	.	8aaL	.
.	8A<J\	[[	8aJ	[[	8aJ	[[
=4	=4	=4	=4	=4	=4	=4
!	!	!LO:DY:t=poco %s	!	!LO:DY:t=poco %s	!	!LO:DY:t=poco %s
1ryy	8ee-XL/	f	8ff#XL	f	4dd'	f
.	8g#XJ	.	8ee-XJ	.	.	.
.	8aL\	.	8ddL	.	8dddL	.
.	8dJ	.	8ff#J	.	8ddJ	.
.	8ee-L/	.	8ee-L	.	8dddL	.
.	8g#J	.	8ddJ	.	8ddJ	.
.	8aL\	.	8ff#L	.	8cccL	.
.	8dJ	.	8ee-J	.	8ddJ	.
=5	=5	=5	=5	=5	=5	=5
1ryy	8ee-XL/	.	8ddL	.	8bb-XL	.
.	8g#XJ	.	8ff#XJ	.	8ddJ	.
.	8aL\	.	8ee-XL	.	8cccL	.
.	8dJ	.	8ddJ	.	8ddJ	.
.	8ee-L//	.	8ff#L	.	8bb-L	.
.	8g#J	.	8ee-J	.	8ddJ	.
.	8aL\	.	8dd	.	8aaL	.
.	8dJ	.	8r	.	8ddJ	.
!!LO:REH:t=50
=6	=6	=6	=6	=6	=6	=6
1ryy	8ee-XL/	.	8ccnL	.	8ggL/	.
.	8g#XJ	.	8b-XJ	.	8dJ	.
.	8aL\	.	8aL	.	8ff#XL	.
.	8dJ	.	8ccJ	.	8dJ	.
.	8ee-L/	.	8b-L\	.	8eeL	.
.	8g#J	.	8aJ	.	8dJ	.
.	8aL\	.	8cc	.	8ee-XL	.
.	8dJ	.	8r	.	8dJ	.
=7	=7	=7	=7	=7	=7	=7
4ryy	8ddL	.	8aL	.	8ccL	.
.	8e-XJ	.	8g#XJ	.	8dJ	.
8c#XL	4ryy	.	8f#XL	.	8aL	.
8DJ	.	.	8aJ	.	8dJ	.
4ryy	8ddL	.	8g#L	.	8ee-XL	.
.	8e-J	.	8f#J	.	8dJ	.
8c#L	4ryy	.	8a	.	8ccL	.
8DJ	.	.	8r	.	8dJ	.
=8	=8	=8	=8	=8	=8	=8
4ryy	8ddL	.	8f#XL	.	8aL	.
.	8e-XJ	.	8e-XJ	.	8dJ	.
8c#XL	4ryy	.	8dL	.	8ccL	.
8DJ	.	.	8f#J	.	8dJ	.
4ryy	8ddL	.	8e-L	.	8b-XL	.
.	8e-J	.	8dJ	.	8dJ	.
8c#L	4ryy	.	8f#L	.	8aL	.
8DJ	.	.	8dJ	.	8dJ	.
=	=	=	=	=	=	=
*-	*-	*-	*-	*-	*-	*-
!!!system-decoration: <s1,s2>{(s3,s4)}
!!!RDF**kern: < = below
!!!EED:Jason Lee
!!!EEV:2022/01/11
